X: 66
T: Trunkles
Z: 1997 by John Chambers <jc@trillian.mit.edu>
N: Morris-dance tune
M: 4/4
L: 1/8
P: A(A2G3C3)2(A2B3D3)2
K: G
P: A
|: B>c  \
| "G"d2 B>B "C"c2e2 | "D7"d>c B>A "G"B2 G2 | d2 B>B "C"c2e2 | "D7"d>c B>A "G"G2 :|
P: B
|: B>c \
| "G"d2 d2 d2 e>f | "C"g>a g>e "G"d2 ^c>d | "A7"e2 A2 A>^c e>c | "D"d4- "D7"d2 :|
P: C (3x)
|: d2 \
| "C"e2 c2 c>d e>c | "G"d2 B2 B>c d>B | "D"c2 A2 A>B c>A | "G"B2 G2 G2 A>B | "C"c>B A>G "D7"F>G A>F | "G"G6 :|
P: D (3x) capers:
|: d2 \
| "C"e4 c4 | c3d e2c2 | "G"d4 B4 | B3c d2B2 | "D7"c4 A4 | A3B c2A2 | "G"B4 G4 "fast"G2 A>B | "C"c>B A>G "D7"F>G A>F | "G"G6 :|


